hmi_base/src/renderer/assets/valve.svg

<?xml version="1.0" encoding="UTF-8" standalone="no"?>
<!-- Svg Vector Icons : http://www.onlinewebfonts.com/icon -->

<svg
   xmlns:dc="http://purl.org/dc/elements/1.1/"
   xmlns:cc="http://creativecommons.org/ns#"
   xmlns:rdf="http://www.w3.org/1999/02/22-rdf-syntax-ns#"
   xmlns:svg="http://www.w3.org/2000/svg"
   xmlns="http://www.w3.org/2000/svg"
   xmlns:sodipodi="http://sodipodi.sourceforge.net/DTD/sodipodi-0.dtd"
   xmlns:inkscape="http://www.inkscape.org/namespaces/inkscape"
   version="1.1"
   x="0px"
   y="0px"
   viewBox="0 0 980.00002 814.2"
   enable-background="new 0 0 1000 1000"
   xml:space="preserve"
   id="svg3336"
   inkscape:version="0.91 r13725"
   sodipodi:docname="valve.svg"
   width="276.57779mm"
   height="229.78534mm"><defs
     id="defs3386" /><sodipodi:namedview
     pagecolor="#ffffff"
     bordercolor="#666666"
     borderopacity="1"
     objecttolerance="10"
     gridtolerance="10"
     guidetolerance="10"
     inkscape:pageopacity="0"
     inkscape:pageshadow="2"
     inkscape:window-width="1920"
     inkscape:window-height="1054"
     id="namedview3384"
     showgrid="false"
     units="mm"
     fit-margin-top="0"
     fit-margin-left="0"
     fit-margin-right="0"
     fit-margin-bottom="0"
     inkscape:zoom="0.435"
     inkscape:cx="584.07631"
     inkscape:cy="386.62337"
     inkscape:window-x="0"
     inkscape:window-y="0"
     inkscape:window-maximized="1"
     inkscape:current-layer="svg3336" /><metadata
     id="metadata3338"> Svg Vector Icons : http://www.onlinewebfonts.com/icon <rdf:RDF><cc:Work
     rdf:about=""><dc:format>image/svg+xml</dc:format><dc:type
       rdf:resource="http://purl.org/dc/dcmitype/StillImage" /><dc:title></dc:title></cc:Work></rdf:RDF></metadata><g
     id="g3340"
     transform="translate(-10,-92.9)"><g
       id="g3342"><g
         id="g3344"><path
           d="m 672.8,333.6 -74.4,0 0,-91.8 -74.1,0 0,-56 c 36.4,-0.7 72.8,-3 109.4,-6.9 40.3,-22.9 40.3,-39 0,-61.9 -36.5,-3.9 -73,-6.2 -109.4,-6.9 l 0,-17.2 -48.7,0 0,17.2 c -36.4,0.7 -72.8,3 -109.4,6.9 -40.3,22.9 -40.3,39 0,61.9 36.5,3.9 73,6.2 109.4,6.9 l 0,56 -74.1,0 0,91.8 -74.4,0 0,53.3 345.6,0 0,-53.3 0.1,0 z m -224.7,-45.3 103.9,0 0,45.3 -103.9,0 0,-45.3 0,0 z"
           id="path3346"
           inkscape:connector-curvature="0" /><path
           d="m 825.8,639.9 -153.9,0 c -22.8,-0.5 -41.2,-19.1 -41.2,-42.1 l 0,-59.9 c 0,-23.2 18.9,-42.1 42.1,-42.1 l 0,-6.8 0,-20.6 0,-32.7 -345.6,0 0,32.7 0,20.6 0,6.8 c 23.2,0 42.1,18.9 42.1,42.1 l 0,59.9 c 0,22.9 -18.4,41.6 -41.2,42.1 l -153.9,0 0,-36.1 -57.7,0 0,303.3 57.7,0 0,-36.9 651.6,0 0,36.9 57.7,0 0,-303.4 -57.7,0 0,36.2 0,0 z"
           id="path3348"
           inkscape:connector-curvature="0" /><rect
           x="932.29999"
           y="603.70001"
           width="57.700001"
           height="303.29999"
           id="rect3350" /><rect
           x="10"
           y="603.70001"
           width="57.700001"
           height="303.29999"
           id="rect3352" /></g></g><g
       id="g3354" /><g
       id="g3356" /><g
       id="g3358" /><g
       id="g3360" /><g
       id="g3362" /><g
       id="g3364" /><g
       id="g3366" /><g
       id="g3368" /><g
       id="g3370" /><g
       id="g3372" /><g
       id="g3374" /><g
       id="g3376" /><g
       id="g3378" /><g
       id="g3380" /><g
       id="g3382" /></g></svg>

<?xml version="1.0" encoding="utf-8"?>
<!-- Svg Vector Icons : http://www.onlinewebfonts.com/icon -->
<!DOCTYPE svg PUBLIC "-//W3C//DTD SVG 1.1//EN" "http://www.w3.org/Graphics/SVG/1.1/DTD/svg11.dtd">
<svg version="1.1" xmlns="http://www.w3.org/2000/svg" xmlns:xlink="http://www.w3.org/1999/xlink" x="0px" y="0px" viewBox="0 0 1000 1000" enable-background="new 0 0 1000 1000" xml:space="preserve">
<metadata> Svg Vector Icons : http://www.onlinewebfonts.com/icon </metadata>
<g><g><g><path d="M672.8,333.6h-74.4v-91.8h-74.1v-56c36.4-0.7,72.8-3,109.4-6.9c40.3-22.9,40.3-39,0-61.9c-36.5-3.9-73-6.2-109.4-6.9V92.9h-48.7v17.2c-36.4,0.7-72.8,3-109.4,6.9c-40.3,22.9-40.3,39,0,61.9c36.5,3.9,73,6.2,109.4,6.9v56h-74.1v91.8h-74.4v53.3h345.6V333.6L672.8,333.6z M448.1,288.3h103.9v45.3H448.1V288.3L448.1,288.3z"/><path d="M825.8,639.9H671.9c-22.8-0.5-41.2-19.1-41.2-42.1v-59.9c0-23.2,18.9-42.1,42.1-42.1V489v-20.6v-32.7H327.2v32.7V489v6.8c23.2,0,42.1,18.9,42.1,42.1v59.9c0,22.9-18.4,41.6-41.2,42.1H174.2v-36.1h-57.7v303.3h57.7v-36.9h651.6v36.9h57.7V603.7h-57.7L825.8,639.9L825.8,639.9z"/><rect x="932.3" y="603.7" width="57.7" height="303.3"/><rect x="10" y="603.7" width="57.7" height="303.3"/></g></g><g></g><g></g><g></g><g></g><g></g><g></g><g></g><g></g><g></g><g></g><g></g><g></g><g></g><g></g><g></g></g>
</svg>
